!!!COM: Music21
!!!OTL: hornpipe_George-Rosss-Sands
!!!OMV: hornpipe_George-Rosss-Sands
**kern
*clefG2
*k[]
*M4/4
=1
8ccL
8ddJ
=
8eeL
8ddJ
8ccL
8bJ
8ddL
8ccJ
8bL
8aJ
=
8gL
8f#XJ
8gL
8eJ
8cL
8eJ
8gL
8eJ
=
8fL
8eJ
8fL
8dJ
8BL
8dJ
8fL
8aJ
=
12gL
12a
12gJ
12eL
12g
12eJ
8cL
8eJ
8gL
8ccJ
!!linebreak:original
=
8eeL
8ddJ
8ccL
8bJ
8ddL
8ccJ
8bL
8aJ
=
8gL
8f#XJ
8gL
8eJ
8cL
8eJ
8gL
8ccJ
=
8aL
8fJ
8aL
8ccJ
8bL
8gJ
8aL
8bJ
=
8cc
8r
8bL
8ddJ
4cc
4ryy
=||
*M4/4
8ccL
8ddJ
=
8eeL
8ddJ
8ccL
8bJ
8ddL
8ccJ
8bL
8aJ
!!linebreak:original
=
8gL
8f#XJ
8gL
8eJ
8cL
8eJ
8gL
8eJ
=
8fL
8eJ
8fL
8dJ
8BL
8dJ
8fL
8aJ
=
12gL
12a
12gJ
12eL
12g
12eJ
8cL
8eJ
8gL
8ccJ
=
8eeL
8ddJ
8ccL
8bJ
8ddL
8ccJ
8bL
8aJ
=
8gL
8f#XJ
8gL
8eJ
8cL
8eJ
8gL
8ccJ
!!linebreak:original
=
8aL
8fJ
8aL
8ccJ
8bL
8gJ
8aL
8bJ
=
8cc
8r
8bL
8ddJ
4cc
4ryy
=||
12eL
12f
12gJ
2.ryy
=||
4a
12aL
12b
12ccJ
4.e
8cc
=
8aL
8eJ
12aL
12b
12ccJ
4.e
8ff
=
8eeL
8eJ
8ddL
8eJ
8ccL
8eJ
8bL
8eJ
!!linebreak:original
=
8ccL
8eJ
8bL
8eJ
8aL
8eJ
8g#XL
8bJ
=
4a
12aL
12b
12ccJ
4e
12eL
12f
12gJ
=
8aL
8eJ
12aL
12b
12ccJ
4.e
8ff
=
12eeL
12ff
12eeJ
12ddL
12ee
12ddJ
12ccL
12dd
12ccJ
12bL
12cc
12bJ
=
12ccL
12dd
12ccJ
12bL
12cc
12bJ
4a
8aa
8r
!!linebreak:original
=||
4a
12aL
12b
12ccJ
4.e
8cc
=
8aL
8eJ
12aL
12b
12ccJ
4.e
8ff
=
8eeL
8eJ
8ddL
8eJ
8ccL
8eJ
8bL
8eJ
=
8ccL
8eJ
8bL
8eJ
8aL
8eJ
8g#XL
8bJ
=
4a
12aL
12b
12ccJ
4e
12eL
12f
12gJ
!!linebreak:original
=
8aL
8eJ
12aL
12b
12ccJ
4.e
8ff
=
12eeL
12ff
12eeJ
12ddL
12ee
12ddJ
12ccL
12dd
12ccJ
12bL
12cc
12bJ
=
12ccL
12dd
12ccJ
12bL
12cc
12bJ
4a
8aa
8r
=||
*-
